usr/share/icons/biglinux-icons-material-dark/symbolic/actions/text_line_spacing.svg

<svg xmlns="http://www.w3.org/2000/svg" viewBox="0 0 16 16">
<defs id="defs3051">
<style id="current-color-scheme" type="text/css">
.ColorScheme-Contrast{color:#dedede}.ColorScheme-Highlight{color:#3daee9}
</style>
</defs>
<path d="M2 4v1h7V4zm0 2v1h6V6zm0 3v1h8V9zm0 2v1h3.563v-1z" class="ColorScheme-Contrast" style="fill:currentColor;fill-opacity:1;stroke:none"/>
<path d="M12.5 2 11 4h1v8h-1l1.5 2 1.5-2h-1V4h1z" class="ColorScheme-Highlight" style="fill:currentColor;fill-opacity:1;stroke:none"/>
</svg>

<svg xmlns="http://www.w3.org/2000/svg" viewBox="0 0 16 16">
  <defs id="defs3051">
    <style type="text/css" id="current-color-scheme">
      .ColorScheme-Text {
        color:#dedede;
      }
      .ColorScheme-Highlight {
        color:#3daee9;
      }
      </style>
  </defs>
  <path 
     style="fill:currentColor;fill-opacity:1;stroke:none" 
     d="M 2 4 L 2 5 L 9 5 L 9 4 L 2 4 z M 2 6 L 2 7 L 8 7 L 8 6 L 2 6 z M 2 9 L 2 10 L 10 10 L 10 9 L 2 9 z M 2 11 L 2 12 L 5.5625 12 L 5.5625 11 L 2 11 z "
     class="ColorScheme-Text"/>
  <path 
     style="fill:currentColor;fill-opacity:1;stroke:none" 
     d="m 12.5,2 -1.5,2 1,0 0,8 -1,0 1.5,2 1.5,-2 -1,0 0,-8 1,0 z"
     class="ColorScheme-Highlight"/>
</svg>
